X:3581
T:Le canal en octobre (F. Paris)
O:england
M:2/4
L:1/16
K:C
cd|e3f fedc|e3f fedc|\
ABce d3c|BcAB G2cd|e3f fedc|
e3f fedc|ABce d3c|c6:|\
|:gg|g3f fedc|g3f fedc|ABce d3c|
BcAB G2ef|g3f fedc|\
g3f fedc|ABce d3c|c6:|


